X: 4370
T: Bonanza
R: hornpipe
M: 4/4
K: Dmajor
|:ABc|d2 df e/f/g fa|g2 ga gbeg|fafd Bgec|dcdb aABc|
dcdf edeg|fefa gfgb|afdf egce|1 d2 f2 d:|2 d2 f2 d2||
|:f2|gece Aceg|fdAd FAdf|edge ceAc|dcdf a2 gf|
gbeg Aceg|fafd FAdf|egce EAce|1 d2 f2 f2:|2 d2 f2 d||

